!!!!SEGMENT: pl-wtm--r-995--007_krogulski-jozef-wladyslaw--msza-pasterska-benedictus.krn
!!!cenid: 18xx:2089
!!!COM: Krogulski, Józef Władysław
!!!COM-rismid: pe30001797
!!!CDT: 1815/10/04-1842/01/09
!!!CNT: Polish
!!!OTL: Msza pasterska – Benedictus
!!!PDT:
!!!AGN: Sacred; Mass
!!!SMS-siglum: PL-Wtm
!!!SMS-shelfmark: R 995
!!!SMS-shelfwork: 001-007 M
!!!SMS-variant:
!!!SMS-altvar:
!!!NIFC-rismid: 1001083272
!!!URL-scan: http://repozytorium.nifc.pl/skany/pl-wtm-nut--r995
!!!ONB-nifc: UWAGA: części Mszy: 1. Kyrie, 2. Gloria, 3. Graduale, 4. Credo, 5. Offertorium, 6. Sanctus, 7. Benedictus, 8. Agnus Dei, 9. Dona nobis
!!!OMD: Andante molto
**kern	**kern	**dynam	**kern	**dynam	**kern	**text	**dynam	**kern	**text	**dynam	**kern	**text	**dynam
*part5	*part5	*part5	*part4	*part4	*part3	*part3	*part3	*part2	*part2	*part2	*part1	*part1	*part1
*staff6	*staff5	*	*staff4	*	*staff3	*staff3	*	*staff2	*staff2	*	*staff1	*staff1	*
*	*I"Organ	*	*I"Baſso	*	*I"Tenori Coro	*	*	*I"Soprano 2.	*	*	*I"Soprano 1. Solo.	*	*
*clefF4	*clefG2	*	*clefF4	*	*clefG	*	*	*clefG2	*	*	*clefG2	*	*
*	*	*	*	*	*ITrd7c12	*	*	*	*	*	*	*	*
*k[f#c#g#d#]	*k[f#c#g#d#]	*	*k[f#c#g#d#]	*	*k[f#c#g#d#]	*	*	*k[f#c#g#d#]	*	*	*k[f#c#g#d#]	*	*
*E:	*E:	*	*E:	*	*E:	*	*	*E:	*	*	*E:	*	*
*M3/4	*M3/4	*	*M3/4	*	*M3/4	*	*	*M3/4	*	*	*M3/4	*	*
=1	=1	=1	=1	=1	=1	=1	=1	=1	=1	=1	=1	=1	=1
*2\right	*	*	*	*	*	*	*	*	*	*	*	*	*
!	!	!LO:DY:rj	!	!	!	!	!	!	!	!	!	!	!
2.E\	2b 2g#/	p	2.r	.	2.r	.	.	2.r	.	.	2.r	.	.
.	8g#L 8e/	.	.	.	.	.	.	.	.	.	.	.	.
.	8cc#J 8a/	.	.	.	.	.	.	.	.	.	.	.	.
=2	=2	=2	=2	=2	=2	=2	=2	=2	=2	=2	=2	=2	=2
*^	*	*	*	*	*	*	*	*	*	*	*	*	*
4r	2.E\	4b 4g#\	.	2.r	.	2.r	.	.	2.r	.	.	2.r	.	.
4e/	.	4gg# 4b\	.	.	.	.	.	.	.	.	.	.	.	.
4B/	.	4ee 4g#\	.	.	.	.	.	.	.	.	.	.	.	.
*v	*v	*	*	*	*	*	*	*	*	*	*	*	*	*
=3	=3	=3	=3	=3	=3	=3	=3	=3	=3	=3	=3	=3	=3
[2.B 2.BB\	4.dd# 4.f#\	.	2.r	.	2.r	.	.	2.r	.	.	2.r	.	.
.	8cc#L 8a\	.	.	.	.	.	.	.	.	.	.	.	.
.	8a 8f#\	.	.	.	.	.	.	.	.	.	.	.	.
.	8cc#J 8a\	.	.	.	.	.	.	.	.	.	.	.	.
=4	=4	=4	=4	=4	=4	=4	=4	=4	=4	=4	=4	=4	=4
2B] 2E\	4b 4g#/	.	2.r	.	2.r	.	.	2.r	.	.	2.r	.	.
.	4g# 4e/	.	.	.	.	.	.	.	.	.	.	.	.
4r	4r	.	.	.	.	.	.	.	.	.	.	.	.
!	!	!	!	!	!	!	!	!	!	!LO:DY:b	!	!	!LO:DY:b
.	.	.	.	.	.	.	.	.	.	p	.	.	p
*	*clefF4	*	*	*	*	*	*	*	*	*	*	*	*
=5	=5	=5	=5	=5	=5	=5	=5	=5	=5	=5	=5	=5	=5
*	*2\right	*	*	*	*	*	*	*	*	*	*	*	*
[2.E [2.EE/	2B 2G#\	.	2.r	.	2.r	.	.	2g#/	.	.	2b/	Be-	.
.	8eL 8G#\	.	.	.	.	.	.	8e/L	.	.	8g#/L	-ne-	.
.	8c#J 8A\	.	.	.	.	.	.	8a/J	.	.	8cc#/J	.	.
=6	=6	=6	=6	=6	=6	=6	=6	=6	=6	=6	=6	=6	=6
2.E] 2.EE/]	2.B 2.G#\	.	2.r	.	2.r	.	.	4g#/	.	.	4b\	-di-	.
.	.	.	.	.	.	.	.	4b/	.	.	4gg#\	-ctus	.
.	.	.	.	.	.	.	.	4g#/	.	.	4ee\	qui	.
=7	=7	=7	=7	=7	=7	=7	=7	=7	=7	=7	=7	=7	=7
2.BB/	2.d# 2.A 2.F#\	.	2.r	.	2.r	.	.	(4.f#/	.	.	(4.dd#\	ve-	.
.	.	.	.	.	.	.	.	8a/L	.	.	8cc#\L	.	.
.	.	.	.	.	.	.	.	8f#/	.	.	8a\	.	.
.	.	.	.	.	.	.	.	8a/J)	.	.	8cc#\J)	.	.
=8	=8	=8	=8	=8	=8	=8	=8	=8	=8	=8	=8	=8	=8
4E 4EE/	4e 4G#\	.	2.r	.	2.r	.	.	4g#/	.	.	4b\	-nit	.
4r	4r	.	.	.	.	.	.	4r	.	.	4r	.	.
4E 4EE/	8B\L	.	.	.	.	.	.	8g#/L	.	.	8ee\L	in	.
.	8G#\J	.	.	.	.	.	.	8b/J	.	.	8dd#\J	.	.
*	*clefG2	*	*	*	*	*	*	*	*	*	*	*	*
=9	=9	=9	=9	=9	=9	=9	=9	=9	=9	=9	=9	=9	=9
2.AA/	8A/L	.	2.r	.	2.r	.	.	4.a/	.	.	4.cc#\	no-	.
.	(8c#/	.	.	.	.	.	.	.	.	.	.	.	.
.	8e/	.	.	.	.	.	.	.	.	.	.	.	.
.	8a/	.	.	.	.	.	.	8b/	.	.	8dd#\	-mi-	.
.	8e/	.	.	.	.	.	.	8cc#/	.	.	8ee\	-ne	.
.	8c#/J)	.	.	.	.	.	.	8a/	.	.	8cc#\	in	.
!!LO:LB:g=original
=10	=10	=10	=10	=10	=10	=10	=10	=10	=10	=10	=10	=10	=10
2.E\	8G#/L	.	2.r	.	2.r	.	.	(4.a/	.	.	(4.cc#\	no-	.
.	(8B/	.	.	.	.	.	.	.	.	.	.	.	.
.	8e/	.	.	.	.	.	.	.	.	.	.	.	.
.	8g#/	.	.	.	.	.	.	8g#/)	.	.	8b\)	.	.
.	8e/	.	.	.	.	.	.	8b\	.	.	8ee\	-mi-	.
.	8B/J)	.	.	.	.	.	.	8ee\	.	.	8gg#\	-ne	.
=11	=11	=11	=11	=11	=11	=11	=11	=11	=11	=11	=11	=11	=11
!	!	!LO:DY:rj	!	!	!	!	!	!	!	!	!	!	!LO:DY:rj:b
2.BB/	8A/L	f	2.r	.	2.r	.	.	(8.ff#\L	.	.	(8.aa\L	Do-	f
.	(8B/	.	.	.	.	.	.	.	.	.	.	.	.
.	.	.	.	.	.	.	.	16ee\Jk	.	.	16gg#\Jk	.	.
.	8d#/	.	.	.	.	.	.	8.dd#\L	.	.	8.ff#\L	.	.
.	8f#/	.	.	.	.	.	.	.	.	.	.	.	.
.	.	.	.	.	.	.	.	16cc#\Jk)	.	.	16ee\Jk)	.	.
.	8d#/	.	.	.	.	.	.	8.b\L	.	.	8.dd#\L	-mi-	.
.	8B/J)	.	.	.	.	.	.	.	.	.	.	.	.
.	.	.	.	.	.	.	.	16a\Jk	.	.	16cc#\Jk	.	.
=12	=12	=12	=12	=12	=12	=12	=12	=12	=12	=12	=12	=12	=12
*^	*	*	*	*	*	*	*	*	*	*	*	*	*
!LO:N:vis=2	!	!	!	!	!	!	!	!	!	!	!	!	!	!
8E/L	2.E\	4e/	.	4r	.	4r	.	.	4g#/	.	.	4b\	-ni	.
(<8G#/	.	.	.	.	.	.	.	.	.	.	.	.	.	.
8B/	.	4r	.	4r	.	4r	.	.	4r	.	.	4r	.	.
8e/	.	.	.	.	.	.	.	.	.	.	.	.	.	.
!	!	!	!	!	!LO:DY:rj:b	!	!	!LO:DY:rj:b	!	!	!	!	!	!
8B/	.	4r	.	8E\	p	8G# 8E/	Be-	p	16e/LL	Be-	.	4r	.	.
.	.	.	.	.	.	.	.	.	16g#/JJ	.	.	.	.	.
8G#/J)	.	.	.	8E\	.	8B 8G#/	-ne-	.	16b\LL	-ne-	.	.	.	.
.	.	.	.	.	.	.	.	.	16ee\JJ	.	.	.	.	.
=13	=13	=13	=13	=13	=13	=13	=13	=13	=13	=13	=13	=13	=13	=13
!LO:N:vis=2	!	!	!	!	!	!	!	!	!LO:TX:t=P:problem:diminuendolike accent	!	!LO:DY:a	!	!	!
8BB/L	2.BB\	2aa\	.	4BB/	.	4A 4F#/	-dic-	.	4ee^\	-di-	.	4r	.	.
(<8F#/	.	.	.	.	.	.	.	.	.	.	.	.	.	.
8A/	.	.	.	8BB/	.	8F# 8D#/	-tus	.	8dd#\	-ctus	.	4r	.	.
8B/	.	.	.	8r	.	8r	.	.	8r	.	.	.	.	.
8A/	.	8ff#\L	.	4BB/	.	8F#L 8D#/	qui	.	4r	.	.	16f#\LL	qui	.
.	.	.	.	.	.	.	.	.	.	.	.	16b\	.	.
8F#/J)	.	8ccc#\J	.	.	.	8AJ 8F#/	.	.	.	.	.	16dd#\	.	.
.	.	.	.	.	.	.	.	.	.	.	.	16ff#\JJ	.	.
=14	=14	=14	=14	=14	=14	=14	=14	=14	=14	=14	=14	=14	=14	=14
*	*	*	*	*	*	*^	*	*	*	*	*	*	*	*
!LO:N:vis=2	!	!	!	!	!	!	!	!	!	!	!	!	!LO:TX:t=P:problem:diminuendolike accent	!	!LO:DY:a
8E/L	2.E\	4bb\	.	4E\	.	4G# 4E/	2ryy	ve-	.	4r	.	.	4ff#^\	ve-	.
(<8G#/	.	.	.	.	.	.	.	.	.	.	.	.	.	.	.
8B/	.	4gg#\	.	8E\	.	8G# 8E/	.	-nit	.	4r	.	.	8ee\	-nit	.
8e/	.	.	.	8r	.	8r	.	.	.	.	.	.	8r	.	.
*	*	*	*	*	*	*	*	*	*	*	*ij	*	*	*	*
8B/	.	4ee\	.	4E\	.	8B/L	4G#\	in	.	4ee\	in	.	4gg#\	in	.
8G#/J)	.	.	.	.	.	8e/J	.	.	.	.	.	.	.	.	.
*	*	*	*	*	*	*v	*v	*	*	*	*	*	*	*	*
=15	=15	=15	=15	=15	=15	=15	=15	=15	=15	=15	=15	=15	=15	=15
!LO:N:vis=2	!	!	!	!	!	!	!	!	!	!	!	!	!	!
8BB/L	2.BB\	4.aa\	.	2BB/	.	2d# 2F#/	no-	.	16ff#\LL	no-	.	16aa\LL	no-	.
.	.	.	.	.	.	.	.	.	16ee\	.	.	16gg#\	.	.
(<8G#/	.	.	.	.	.	.	.	.	16dd#\	.	.	16ff#\	.	.
.	.	.	.	.	.	.	.	.	16ee\JJ	.	.	16gg#\JJ	.	.
8B/	.	.	.	.	.	.	.	.	16dd#\LL	-mi-	.	16ff#\LL	-mi-	.
.	.	.	.	.	.	.	.	.	16cc#\	.	.	16ee\	.	.
8e/	.	8bb\L	.	.	.	.	.	.	16b\	.	.	16dd#\	.	.
.	.	.	.	.	.	.	.	.	16cc#\JJ	.	.	16ee\JJ	.	.
8B/	.	8ff#\	.	8BB/	.	8d# 8F#/	-mi-	.	16b\LL	-ne	.	16dd#\LL	-ne	.
.	.	.	.	.	.	.	.	.	16a\	.	.	16cc#\	.	.
8G#/J)	.	8bb\J	.	8BB/	.	8d# 8F#/	-ne	.	16g#\	.	.	16b\	.	.
.	.	.	.	.	.	.	.	.	16f#\JJ	.	.	16a\JJ	.	.
=16	=16	=16	=16	=16	=16	=16	=16	=16	=16	=16	=16	=16	=16	=16
!LO:N:vis=2	!	!	!	!	!	!	!	!	!	!	!	!	!	!
8E/L	2.E\	4bb\	.	8.E\	.	8.e 8.G#/	do-	.	8.e/	Do-	.	8.g#/	Do-	.
(<8G#/	.	.	.	.	.	.	.	.	.	.	.	.	.	.
.	.	.	.	16E\	.	16B 16F#/	-mi-	.	16f#/	-mi-	.	16a/	-mi-	.
8B/	.	4gg#\	.	8E\	.	8G# 8E/	-ni	.	8g#/	-ni	.	8b/	-ni	.
*	*	*	*	*	*	*	*	*	*	*Xij	*	*	*	*
8e/	.	.	.	8r	.	8r	.	.	8r	.	.	8r	.	.
8B/	.	4r	.	8E\	.	8G# 8E/	Be-	.	16e/LL	Be-	.	4r	.	.
.	.	.	.	.	.	.	.	.	16g#/JJ	.	.	.	.	.
8G#/J)	.	.	.	8E\	.	8B 8G#/	ne-	.	16b\LL	-ne-	.	.	.	.
.	.	.	.	.	.	.	.	.	16ee\JJ	.	.	.	.	.
=17	=17	=17	=17	=17	=17	=17	=17	=17	=17	=17	=17	=17	=17	=17
!LO:N:vis=2	!	!	!	!	!	!	!	!	!LO:TX:t=P:problem:diminuendolike accent	!	!LO:DY:a	!	!	!
8BB/L	2.BB\	2aa\	.	4BB/	.	4A 4F#/	-dic-	.	4ee^\	-di-	.	4r	.	.
(<8F#/	.	.	.	.	.	.	.	.	.	.	.	.	.	.
8A/	.	.	.	8BB/	.	8F# 8D#/	-tus	.	8dd#\	-ctus	.	4r	.	.
8B/	.	.	.	8r	.	8r	.	.	8r	.	.	.	.	.
8A/	.	8ff#\L	.	4BB/	.	8F#L 8D#/	qui	.	4r	.	.	16f#\LL	qui	.
.	.	.	.	.	.	.	.	.	.	.	.	16b\	.	.
8F#/J)	.	8ccc#\J	.	.	.	8AJ 8F#/	.	.	.	.	.	16dd#\	.	.
.	.	.	.	.	.	.	.	.	.	.	.	16ff#\JJ	.	.
=18	=18	=18	=18	=18	=18	=18	=18	=18	=18	=18	=18	=18	=18	=18
*	*	*	*	*	*	*^	*	*	*	*	*	*	*	*
!LO:N:vis=2	!	!	!	!	!	!	!	!	!	!	!	!	!LO:TX:t=P:problem:diminuendolike accent	!	!LO:DY:a
8E/L	2.E\	4bb\	.	4E\	.	4G# 4E/	2ryy	ve-	.	4r	.	.	4ff#^\	ve-	.
(<8G#/	.	.	.	.	.	.	.	.	.	.	.	.	.	.	.
8B/	.	4gg#\	.	8E\	.	8G# 8E/	.	-nit	.	4r	.	.	8ee\	-nit	.
8e/	.	.	.	8r	.	8r	.	.	.	.	.	.	8r	.	.
8B/	.	4ee\	.	4E\	.	8B/L	4G#\	in	.	4ee\	.	.	4gg#\	in	.
8G#/J)	.	.	.	.	.	8e/J	.	.	.	.	.	.	.	.	.
*	*	*	*	*	*	*v	*v	*	*	*	*	*	*	*	*
!!LO:PB:g=original
=19	=19	=19	=19	=19	=19	=19	=19	=19	=19	=19	=19	=19	=19	=19
*	*	*	*	*	*	*2\right	*	*	*	*	*	*	*	*
!LO:N:vis=2	!	!	!	!	!	!	!	!	!	!	!	!	!	!
8BB/L	2.BB\	4.aa\	.	2BB/	.	2d# 2F#\	no-	.	16ff#\LL	.	.	16aa\LL	no-	.
.	.	.	.	.	.	.	.	.	16ee\	.	.	16gg#\	.	.
(<8F#/	.	.	.	.	.	.	.	.	16dd#\	.	.	16ff#\	.	.
.	.	.	.	.	.	.	.	.	16ee\JJ	.	.	16gg#\JJ	.	.
8A/	.	.	.	.	.	.	.	.	16dd#\LL	.	.	16ff#\LL	-mi-	.
.	.	.	.	.	.	.	.	.	16cc#\	.	.	16ee\	.	.
8B/	.	8bb\L	.	.	.	.	.	.	16b\	.	.	16dd#\	.	.
.	.	.	.	.	.	.	.	.	16cc#\JJ	.	.	16ee\JJ	.	.
8A/	.	8ff#\	.	8BB/	.	8d# 8F#/	-mi-	.	16b\LL	.	.	16dd#\LL	-ne	.
.	.	.	.	.	.	.	.	.	16a\	.	.	16cc#\	.	.
8F#/J)	.	8bb\J	.	8BB/	.	8d# 8F#/	-ne	.	16g#\	.	.	16b\	.	.
.	.	.	.	.	.	.	.	.	16f#\JJ	.	.	16a\JJ	.	.
*v	*v	*	*	*	*	*	*	*	*	*	*	*	*	*
=20	=20	=20	=20	=20	=20	=20	=20	=20	=20	=20	=20	=20	=20
(8E\L	4bb\	.	8.E\	.	8.e 8.G#/	Do-	.	8.e/	.	.	8.g#/	Do-	.
8G#\	.	.	.	.	.	.	.	.	.	.	.	.	.
.	.	.	16E\	.	16B 16F#/	-mi-	.	16f#/	.	.	16a/	-mi-	.
8E\	(8gg#\L	.	8E\	.	8G# 8E/	-ni	.	8g#/	.	.	8b/	-ni	.
8BB\	8ee\	.	8r	.	8r	.	.	8r	.	.	8r	.	.
!	!	!	!	!	!	!	!	!	!	!LO:DY:rj:b	!	!	!LO:DY:rj:b
8GG#\	8b\	.	4r	.	4r	.	.	8.e/	.	p	8.g#/	Be-	p
8EE\J)	8g#\J)	.	.	.	.	.	.	.	.	.	.	.	.
.	.	.	.	.	.	.	.	16e/	.	.	16g#/	-ne-	.
!	!	!	!	!LO:DY:b	!	!	!LO:DY:b	!	!	!	!	!	!
.	.	.	.	p	.	.	p	.	.	.	.	.	.
=21	=21	=21	=21	=21	=21	=21	=21	=21	=21	=21	=21	=21	=21
*	*	*	*	*	*^	*	*	*	*	*	*	*	*
*	*	*	*2\right	*	*	*	*	*	*	*	*	*	*	*
[2.E [2.EE/	(8f#L 8A/	.	2E\	.	2E/	2E\	Be-	.	8f#/L	.	.	8a/L	-dic-	<
!	!	!LO:HP:a	!	!	!	!	!	!	!	!	!	!	!	!
.	8e 8G#/	<	.	.	.	.	.	.	8e/	.	.	8g#/	.	.
!	!	!	!	!	!	!	!	!	!	!	!LO:HP:a	!	!	!
.	.	.	.	.	.	.	.	.	.	.	<	.	.	.
.	8f# 8A/	.	.	.	.	.	.	.	8f#/	.	.	8a/	.	.
.	8g# 8B/	.	.	.	.	.	.	.	8g#/	.	.	8b/	.	.
.	8a 8c#/	[	4E\	.	4E/	4E\	-ne-	.	8a/	.	[	8cc#/	.	[
.	8f#J 8d#/)	.	.	.	.	.	.	.	8f#/J	.	.	8dd#/J	.	.
=22	=22	=22	=22	=22	=22	=22	=22	=22	=22	=22	=22	=22	=22	=22
2.E_ 2.EE/_	4g# 4e/	.	4E\	.	4E/	4E\	-dic-	.	4g#/	.	.	4ee\	-tus	.
!	!	!	!	!	!	!	!	!LO:HP:a:t=cres	!	!	!	!	!	!
.	.	.	.	.	.	.	.	<	.	.	.	.	.	.
.	4r	.	4E\	.	4E/	4E\	-tus	.	4r	.	.	4r	.	.
!	!	!	!	!	!	!	!	!	!	!	!	!	!	!LO:HP:a:t=cres.
.	4g# 4B/	.	4E\	.	4E/	4E\	qui	.	8.g#/	.	.	8.b\	Be-	<
.	.	.	.	.	.	.	.	.	16g#/	.	.	16b\	-ne-	.
=23	=23	=23	=23	=23	=23	=23	=23	=23	=23	=23	=23	=23	=23	=23
2.E] 2.EE/]	(8aL 8c#/	.	4E\	.	4E/	4E\	ve-	.	8a\L	.	.	8cc#\L	-dic-	.
!	!	!LO:HP:a	!	!	!	!	!	!	!	!	!	!	!	!LO:DY:a
.	8g# 8B/	<	.	.	.	.	.	.	8g#\	.	.	8b\	.	<
.	.	.	.	.	.	.	.	.	.	.	<	.	.	.
.	8a 8c#/	.	4E\	.	4E/	4E\	-nit	.	8a\	.	.	8cc#\	.	.
.	8b 8d#/	.	.	.	.	.	.	.	8b\	.	.	8dd#\	.	.
.	8cc# 8e/	[	4E\	.	4E/	4E\	in	.	8cc#\	.	.	8ee\	.	.
.	8dd#J 8f#/)	.	.	.	.	.	.	.	8dd#\J	.	[	8ff#\J	.	[
=24	=24	=24	=24	=24	=24	=24	=24	=24	=24	=24	=24	=24	=24	=24
8r	4ee 4g#\	.	4E\	.	4E/	4E\	no-	.	4ee\	.	.	4gg#\	-tus	.
(8EE/L	.	.	.	.	.	.	.	.	.	.	.	.	.	.
8GG#/	4r	.	4E\	.	4E/	4E\	-mi-	.	4r	.	.	4r	.	.
8BB/	.	.	.	.	.	.	.	.	.	.	.	.	.	.
8E/	4r	.	4E\	.	4E/	4E\	-ne	.	4ee\	.	.	4gg#\	qui	.
8G#/J)	.	.	.	.	.	.	.	.	.	.	.	.	.	.
!	!	!	!	!LO:DY:b	!	!	!	!LO:DY:b	!	!	!LO:DY:b	!	!	!LO:DY:b
.	.	.	.	f	.	.	.	f	.	.	f	.	.	f
*	*	*	*	*	*v	*v	*	*	*	*	*	*	*	*
=25	=25	=25	=25	=25	=25	=25	=25	=25	=25	=25	=25	=25	=25
!	!	!LO:DY:rj	!	!	!	!	!	!	!	!	!	!	!
2.B\	2.g# 2.e/	f	2.BB/	.	2.e 2.G#\	Do-	.	8ee\L	.	.	8gg#\L	ve-	.
.	.	.	.	.	.	.	.	8b\J	.	.	8ee\J	.	.
.	.	.	.	.	.	.	.	8g#/L	.	.	8b\L	-nit	.
.	.	.	.	.	.	.	.	8e/J	.	.	8g#\J	.	.
.	.	.	.	.	.	.	.	8a/L	.	.	8cc#\L	in	.
.	.	.	.	.	.	.	.	8g#/J	.	.	8b\J	.	.
=26	=26	=26	=26	=26	=26	=26	=26	=26	=26	=26	=26	=26	=26
2.BB/	2.f# 2.d#/	.	2.BB^>/	.	2.d# 2.F#^\	-mi-	.	4g#/	.	.	4b/	no-	.
.	.	.	.	.	.	.	.	8g#/	.	.	8b/	-mi-	.
.	.	.	.	.	.	.	.	8f##X/	.	.	8a#X/	-ne	>
!	!	!	!	!	!	!	!	!	!	!LO:HP:a	!	!	!
.	.	.	.	.	.	.	.	.	.	>	.	.	.
!	!	!	!	!	!	!	!	!LO:N:acc=n#	!	!	!	!	!
.	.	.	.	.	.	.	.	8f#/	.	]	8an/	do-	]
.	.	.	.	.	.	.	.	8d#/	.	.	8f#/	-mi-	.
!!LO:LB:g=original
=27	=27	=27	=27	=27	=27	=27	=27	=27	=27	=27	=27	=27	=27
!	!	!LO:DY:rj	!	!LO:DY:rj:b	!	!	!LO:DY:rj:b	!	!	!	!	!	!
(8E\L	4g# 4e/	p	4E\	p	4e 4G#\	-ni	p	4e/	.	.	4g#/	-ni	.
8G#\	.	.	.	.	.	.	.	.	.	.	.	.	.
8E\	(8g#/L	.	4r	.	4r	.	.	4r	.	.	4r	.	.
8BB\	8e/	.	.	.	.	.	.	.	.	.	.	.	.
!	!	!	!	!	!	!	!	!	!	!LO:DY:rj:b	!	!	!LO:DY:rj:b
8GG#\	8B/	.	4r	.	4r	.	.	8.e/	.	p	8.g#/	Be-	p
8EE\J)	8G#/J)	.	.	.	.	.	.	.	.	.	.	.	.
.	.	.	.	.	.	.	.	16e/	.	.	16g#/	-ne-	.
!	!	!	!	!LO:DY:b	!	!	!LO:DY:b	!	!	!	!	!	!
.	.	.	.	p	.	.	p	.	.	.	.	.	.
=28	=28	=28	=28	=28	=28	=28	=28	=28	=28	=28	=28	=28	=28
*	*	*	*	*	*^	*	*	*	*	*	*	*	*
[2.E [2.EE/	(8f#L 8A/	.	2E\	.	2E/	2E\	Be-	.	8f#/L	.	.	8a/L	-dic-	.
.	.	.	.	.	.	.	.	.	.	.	.	.	.	<
!	!	!LO:HP:a	!	!	!	!	!	!	!	!	!LO:HP:a	!	!	!
.	8e 8G#/	<	.	.	.	.	.	.	8e/	.	<	8g#/	.	.
.	8f# 8A/	.	.	.	.	.	.	.	8f#/	.	.	8a/	.	.
.	8g# 8B/	.	.	.	.	.	.	.	8g#/	.	.	8b/	.	.
.	8a 8c#/	.	4E\	.	4E/	4E\	-ne-	.	8a/	.	.	8cc#/	.	[
.	8f#J 8d#/)	[	.	.	.	.	.	.	8f#/J	.	[	8dd#/J	.	.
=29	=29	=29	=29	=29	=29	=29	=29	=29	=29	=29	=29	=29	=29	=29
2.E_ 2.EE/_	4g# 4e/	.	4E\	.	4E/	4E\	-dic-	.	4g#/	.	.	4ee\	-tus	.
!	!	!	!	!	!	!	!	!LO:HP:a:t=cres	!	!	!	!	!	!
.	.	.	.	.	.	.	.	<	.	.	.	.	.	.
!	!	!	!	!	!	!	!	!	!	!	!	!	!	!LO:HP:a:t=cres
.	4r	.	4E\	.	4E/	4E\	-tus	.	4r	.	.	4r	.	<
.	4g# 4B/	.	4E\	.	4E/	4E\	qui	.	8.g#/	.	.	8.b\	Be-	.
.	.	.	.	.	.	.	.	.	16g#/	.	.	16b\	-ne-	.
=30	=30	=30	=30	=30	=30	=30	=30	=30	=30	=30	=30	=30	=30	=30
2.E] 2.EE/]	(8aL 8c#/	.	4E\	.	4E/	4E\	ve-	.	8a\L	.	.	8cc#\L	-dic-	.
!	!	!	!	!	!	!	!	!	!	!	!LO:DY:a	!	!	!LO:DY:a
.	8g# 8B/	.	.	.	.	.	.	.	8g#\	.	<	8b\	.	<
.	8a 8c#/	.	4E\	.	4E/	4E\	-nit	.	8a\	.	.	8cc#\	.	.
.	8b 8d#/	.	.	.	.	.	.	.	8b\	.	.	8dd#\	.	.
.	8cc# 8e/	.	4E\	.	4E/	4E\	in	.	8cc#\	.	[	8ee\	.	.
.	8dd#J 8f#/)	.	.	.	.	.	.	.	8dd#\J	.	.	8ff#\J	.	[
=31	=31	=31	=31	=31	=31	=31	=31	=31	=31	=31	=31	=31	=31	=31
8r	4ee 4g#\	.	4E\	.	4E/	4E\	no-	.	4ee\	.	.	4gg#\	-tus	.
(8EE/L	.	.	.	.	.	.	.	.	.	.	.	.	.	.
8GG#/	4r	.	4E\	.	4E/	4E\	-mi-	.	4r	.	.	4r	.	.
8BB/	.	.	.	.	.	.	.	.	.	.	.	.	.	.
!	!	!	!	!	!	!	!	!	!	!	!LO:DY:rj:b	!	!	!LO:DY:rj:b
8E/	4r	.	4E\	.	4E/	4E\	-ne	.	4ee\	.	f	4gg#\	qui	f
8G#/J)	.	.	.	.	.	.	.	.	.	.	.	.	.	.
*	*	*	*	*	*v	*v	*	*	*	*	*	*	*	*
=32	=32	=32	=32	=32	=32	=32	=32	=32	=32	=32	=32	=32	=32
!	!	!LO:DY:rj	!	!LO:DY:rj:b	!	!	!LO:DY:rj:b	!	!	!	!	!	!
2.B\	2.g# 2.e/	f	2.BB/	f	2.e 2.G#\	Do-	f	8ee\L	.	.	8gg#\L	ve-	.
.	.	.	.	.	.	.	.	8b\J	.	.	8ee\J	.	.
.	.	.	.	.	.	.	.	8g#/L	.	.	8b\L	-nit	.
.	.	.	.	.	.	.	.	8e/J	.	.	8g#\J	.	.
.	.	.	.	.	.	.	.	8a/L	.	.	8cc#\L	in	.
.	.	.	.	.	.	.	.	8g#/J	.	.	8b\J	.	.
=33	=33	=33	=33	=33	=33	=33	=33	=33	=33	=33	=33	=33	=33
*	*	*^	*	*	*	*	*	*	*	*	*	*	*
2.BB/	2.f# 2.d#/	.	.	2.BB^/	.	2.d# 2.F#^\	-mi-	.	4g#/	.	.	4b/	no-	.
.	.	.	.	.	.	.	.	.	8g#/	.	.	8b/	-mi-	.
.	.	.	.	.	.	.	.	.	.	.	>	.	.	>
.	.	.	.	.	.	.	.	.	8f##X/	.	.	8a#X/	-ne	.
!	!	!	!	!	!	!	!	!	!LO:N:acc=n#	!	!	!	!	!
.	.	.	.	.	.	.	.	.	8f#/	.	]	8an/	Do-	.
.	.	.	.	.	.	.	.	.	8d#/	.	.	8f#/	-mi-	]
!	!	!	!LO:DY:b=2	!	!LO:DY:b	!	!	!LO:DY:b	!	!	!	!	!	!
.	.	p	p	.	p	.	.	p	.	.	.	.	.	.
*	*	*v	*v	*	*	*	*	*	*	*	*	*	*	*
=34	=34	=34	=34	=34	=34	=34	=34	=34	=34	=34	=34	=34	=34
*^	*	*	*	*	*	*	*	*	*	*	*	*	*
!LO:N:vis=2	!	!	!	!	!	!	!	!	!	!	!	!	!	!
8E/L	2.E\	2bb\	.	4E\	.	4e 4G#\	-ni	.	4e/	.	.	4e/	-ni	.
(<8G#/	.	.	.	.	.	.	.	.	.	.	.	.	.	.
8B/	.	.	.	4r	.	4r	.	.	4r	.	.	4r	.	.
8e/	.	.	.	.	.	.	.	.	.	.	.	.	.	.
8B/	.	8gg#\L	.	4r	.	4r	.	.	4r	.	.	4r	.	.
8G#/J)	.	8ccc#\J	.	.	.	.	.	.	.	.	.	.	.	.
=35	=35	=35	=35	=35	=35	=35	=35	=35	=35	=35	=35	=35	=35	=35
*rep	*rep	*	*	*	*	*	*	*	*	*	*	*	*	*
!LO:N:vis=2	!	!	!	!	!	!	!	!	!	!	!	!	!	!
8E/L	2.E\	4bb\	.	2.r	.	2.r	.	.	2.r	.	.	2.r	.	.
(<8G#/	.	.	.	.	.	.	.	.	.	.	.	.	.	.
8B/	.	4gg#\	.	.	.	.	.	.	.	.	.	.	.	.
8e/	.	.	.	.	.	.	.	.	.	.	.	.	.	.
8B/	.	4ee\	.	.	.	.	.	.	.	.	.	.	.	.
8G#/J)	.	.	.	.	.	.	.	.	.	.	.	.	.	.
*Xrep	*Xrep	*	*	*	*	*	*	*	*	*	*	*	*	*
!!LO:PB:g=original
=36	=36	=36	=36	=36	=36	=36	=36	=36	=36	=36	=36	=36	=36	=36
!LO:N:vis=2	!	!	!	!	!	!	!	!	!	!	!LO:DY:rj:b	!	!	!
8BB/L	2.BB\	[2.ff#\	.	2.r	.	2.r	.	.	2a/	Be-	p	2.r	.	.
(<8F#/	.	.	.	.	.	.	.	.	.	.	.	.	.	.
8A/	.	.	.	.	.	.	.	.	.	.	.	.	.	.
8B/	.	.	.	.	.	.	.	.	.	.	.	.	.	.
8A/	.	.	.	.	.	.	.	.	8f#/L	-ne-	.	.	.	.
8F#/J)	.	.	.	.	.	.	.	.	8b/J	.	.	.	.	.
=37	=37	=37	=37	=37	=37	=37	=37	=37	=37	=37	=37	=37	=37	=37
*rep	*rep	*	*	*	*	*	*	*	*	*	*	*	*	*
!LO:N:vis=2	!	!	!	!	!	!	!	!	!	!	!	!	!	!
8BB/L	2.BB\	8ff#\L]	.	2.r	.	2.r	.	.	(4a/	-dic-	.	2.r	.	.
(<8F#/	.	(8gg#\	.	.	.	.	.	.	.	.	.	.	.	.
8A/	.	8aa\	.	.	.	.	.	.	4f#/	.	.	.	.	.
8B/	.	8b\	.	.	.	.	.	.	.	.	.	.	.	.
8A/	.	8dd#\	.	.	.	.	.	.	4d#/)	.	.	.	.	.
8F#/J)	.	8ff#\J)	.	.	.	.	.	.	.	.	.	.	.	.
!	!	!	!	!	!LO:DY:b	!	!	!LO:DY:b	!	!	!	!	!	!
.	.	.	.	.	p	.	.	p	.	.	.	.	.	.
*Xrep	*Xrep	*	*	*	*	*	*	*	*	*	*	*	*	*
=38	=38	=38	=38	=38	=38	=38	=38	=38	=38	=38	=38	=38	=38	=38
!LO:N:vis=2	!	!	!	!	!	!	!	!	!	!	!	!	!	!
8E/L	2.E\	2ee\	.	[2.E\	.	2B 2G#/	Be-	.	4e/	-tus	.	2.r	.	.
(<8G#/	.	.	.	.	.	.	.	.	.	.	.	.	.	.
8B/	.	.	.	.	.	.	.	.	4r	.	.	.	.	.
8e/	.	.	.	.	.	.	.	.	.	.	.	.	.	.
8B/	.	8ff#\L	.	.	.	8G#L 8E/	.	.	4r	.	.	.	.	.
8G#/J)	.	8ccc#\J	.	.	.	8c#J 8A/	.	.	.	.	.	.	.	.
=39	=39	=39	=39	=39	=39	=39	=39	=39	=39	=39	=39	=39	=39	=39
*	*	*	*	*	*	*^	*	*	*	*	*	*	*	*
*rep	*rep	*	*	*	*	*	*	*	*	*	*	*	*	*	*
!LO:N:vis=2	!	!	!	!	!	!	!	!	!	!	!	!	!	!	!
8E/L	2.E\	4bb\	.	2E\]	.	4B/	2G#\	.	.	2.r	.	.	2.r	.	.
(<8G#/	.	.	.	.	.	.	.	.	.	.	.	.	.	.	.
8B/	.	4gg#\	.	.	.	4G#/	.	.	.	.	.	.	.	.	.
8e/	.	.	.	.	.	.	.	.	.	.	.	.	.	.	.
8B/	.	4ee\	.	4E\	.	4e 4G#/	4G#\	-ne-	.	.	.	.	.	.	.
8G#/J)	.	.	.	.	.	.	.	.	.	.	.	.	.	.	.
!	!	!	!	!	!	!	!	!	!	!	!	!LO:DY:b	!	!	!LO:DY:b
.	.	.	.	.	.	.	.	.	.	.	.	p	.	.	p
*Xrep	*Xrep	*	*	*	*	*	*	*	*	*	*	*	*	*	*
*	*	*	*	*	*	*v	*v	*	*	*	*	*	*	*	*
=40	=40	=40	=40	=40	=40	=40	=40	=40	=40	=40	=40	=40	=40	=40
*	*	*	*	*	*	*	*	*	*	*	*	*2\right	*	*
!LO:N:vis=2	!	!	!	!	!	!	!	!	!	!	!	!	!	!
8BB/L	2.BB\	[2.ff#\	.	[2.BB/	.	2.d# 2.F#/	-dic-	.	2a/	.	.	2ff#\	Be-	.
(<8F#/	.	.	.	.	.	.	.	.	.	.	.	.	.	.
8A/	.	.	.	.	.	.	.	.	.	.	.	.	.	.
8B/	.	.	.	.	.	.	.	.	.	.	.	.	.	.
8A/	.	.	.	.	.	.	.	.	8f#/L	.	.	8dd#\L	-ne-	.
8F#/J)	.	.	.	.	.	.	.	.	8b/J	.	.	8gg#\J	.	.
=41	=41	=41	=41	=41	=41	=41	=41	=41	=41	=41	=41	=41	=41	=41
*	*	*	*	*	*	*^	*	*	*	*	*	*	*	*
*rep	*rep	*	*	*	*	*	*	*	*	*	*	*	*	*	*
!LO:N:vis=2	!	!	!	!	!	!	!	!	!	!	!	!	!	!	!
8BB/L	2.BB\	8ff#\L]	.	2.BB/]	.	8d#/L	8F#\L	.	.	4a/	.	.	4ff#\	-dic-	.
(<8F#/	.	(8gg#\	.	.	.	8e/J	8G#\J	.	.	.	.	.	.	.	.
8A/	.	8aa\	.	.	.	2f#/	4A\	.	.	4f#/	.	.	4dd#\	.	.
8B/	.	8b\	.	.	.	.	.	.	.	.	.	.	.	.	.
8A/	.	8dd#\	.	.	.	.	8B\L	.	.	4d#/	.	.	4b\	.	.
8F#/J)	.	8ff#\J)	.	.	.	.	8A\J	.	.	.	.	.	.	.	.
*Xrep	*Xrep	*	*	*	*	*	*	*	*	*	*	*	*	*	*
*	*	*	*	*	*	*v	*v	*	*	*	*	*	*	*	*
=42	=42	=42	=42	=42	=42	=42	=42	=42	=42	=42	=42	=42	=42	=42
!LO:N:vis=2	!	!	!	!	!	!	!	!	!	!	!	!	!	!
8E/L	2.E\	(8ee\L	.	8E\	.	8e 8G#\	-tus	.	4e/	.	.	4ee\	-tus	.
(<8G#/	.	8gg#\	.	8r	.	8r	.	.	.	.	.	.	.	.
8B/	.	8ee\	.	8E\	.	8e 8G#\	Be-	.	4r	.	.	4r	.	.
8e/	.	8b\	.	8r	.	8r	.	.	.	.	.	.	.	.
8B/	.	8g#\	.	8E\	.	8e 8G#\	-ne-	.	8ee\	Be-	.	4r	.	.
8G#/J)	.	8e\J)	.	8r	.	8r	.	.	8ee\	-ne-	.	.	.	.
*v	*v	*	*	*	*	*	*	*	*	*	*	*	*	*
=43	=43	=43	=43	=43	=43	=43	=43	=43	=43	=43	=43	=43	=43
2.F##X\	8c#/L	.	8F##X\	.	8d# 8A#X\	-dic-	.	4dd#\	-dic-	.	4r	.	.
.	(8d#/	.	8r	.	8r	.	.	.	.	.	.	.	.
.	8a#X/	.	8F##\	.	8d# 8A#\	-tus	.	4a#X\	-tus	.	4r	.	.
.	8d#/	.	8r	.	8r	.	.	.	.	.	.	.	.
.	8c#/	.	8F##\	.	8d# 8A#\	qui	.	4cc#\	qui	.	8dd#\	Be-	.
.	8d#/J)	.	8r	.	8r	.	.	.	.	.	8dd#\	-ne-	.
=44	=44	=44	=44	=44	=44	=44	=44	=44	=44	=44	=44	=44	=44
2.G#\	8B/L	.	8G#\	.	8d# 8B\	ve-	.	4b\	ve-	.	4gg#\	-dic-	.
.	(8d#/	.	8r	.	8r	.	.	.	.	.	.	.	.
.	8g#/	.	8G#\	.	8d# 8B\	-nit	.	4g#\	-nit	.	4b\	-tus	.
.	8d#/	.	8r	.	8r	.	.	.	.	.	.	.	.
.	8B/	.	8G#\	.	8d# 8B\	in	.	4dd#\	in	.	8gg#\	Be-	.
.	8d#/J)	.	8r	.	8r	.	.	.	.	.	8ff#\	-ne-	.
=45	=45	=45	=45	=45	=45	=45	=45	=45	=45	=45	=45	=45	=45
2.C#/	(8c#/L	.	8C#\	.	8e#X 8G#\	no-	.	(4.cc#\	no-	.	2.ee#X\	-dic-	.
.	8e#X/	.	8r	.	8r	.	.	.	.	.	.	.	.
.	8g#/	.	8C#\	.	8c# 8E#X/	-mi-	.	.	.	.	.	.	.
.	8e#/	.	8r	.	8r	.	.	8g#\)	.	.	.	.	.
.	8c#/	.	8C#\	.	8c# 8E#/	-ne	.	8cc#\	-mi-	.	.	.	.
.	8e#/J)	.	8r	.	8r	.	.	8b\	-ne	.	.	.	.
!!LO:LB:g=original
=46	=46	=46	=46	=46	=46	=46	=46	=46	=46	=46	=46	=46	=46
*	*	*	*	*	*^	*	*	*	*	*	*	*	*
!	!LO:TX:t=P:problem:mixed beam	!	!	!	!	!	!	!	!	!	!	!	!	!
2.F#\	8f#/L	.	8F#\	.	8F#/	8F#\	Do-	.	8.b/	Do-	.	4ff#\	-tus	.
.	(>8c#/	.	8r	.	8r	8ryy	.	.	.	.	.	.	.	.
.	.	.	.	.	.	.	.	.	16a#/	-mi-	.	.	.	.
.	8cc#\	.	8F#\	.	8F#/	8F#\	-mi-	.	8a#/	-ni	.	4r	.	.
.	8a#X\	.	8r	.	8r	8ryy	.	.	8r	.	.	.	.	.
.	8f#\	.	8F#\	.	8F#/	8F#\	-ni	.	8b\	Be-	.	8dd#\	Be-	.
.	8en\J)	.	8r	.	8r	8ryy	.	.	8cc#\	-ne	.	8ee\	-ne-	.
=47	=47	=47	=47	=47	=47	=47	=47	=47	=47	=47	=47	=47	=47	=47
2D#\	8d#/L	.	8D#\	.	8F#/	8F#\	Be-	.	4dd#\	.	.	4ff#\	-dic-	.
.	(8f#/	.	8D#\	.	8F#/	8F#\	-ne-	.	.	.	.	.	.	.
.	8b/	.	8D#\	.	8F#/	8F#\	-dic-	.	8b\	.	.	8dd#\	-tus	.
.	8d#/	.	8r	.	8r	8ryy	.	.	8r	.	.	8r	.	.
4E\	8c#/	.	8E\	.	8F#/	8F#\	-tus	.	16g##X\LL	.	.	16b#X\LL	Be-	.
.	.	.	.	.	.	.	.	.	16a#X\JJ	.	.	16cc#\JJ	.	.
.	8a#X/J)	.	8r	.	8r	8ryy	.	.	16b\LL	.	.	16dd#\LL	-ne-	.
.	.	.	.	.	.	.	.	.	16cc#\JJ	.	.	16ee\JJ	.	.
=48	=48	=48	=48	=48	=48	=48	=48	=48	=48	=48	=48	=48	=48	=48
2.D#\	8d#/L	.	8D#\	.	8F#/	8F#\	Be-	.	4dd#\	.	.	4ff#\	-dic-	.
.	(8f#/	.	8D#\	.	8F#/	8F#\	-ne-	.	.	.	.	.	.	.
.	8b/	.	8D#\	.	8F#/	8F#\	-dic-	.	8b\	.	.	8dd#\	-tus	.
.	8f#/	.	8r	.	8r	8ryy	.	.	8r	.	.	8r	.	.
.	8d#/	.	8D#\	.	8B 8F#/	4ryy	-tus	.	4b\	.	.	4dd#\	qui	.
.	8B/J)	.	8D#\	.	8B 8F#/	.	qui	.	.	.	.	.	.	.
*	*	*	*	*	*v	*v	*	*	*	*	*	*	*	*
=49	=49	=49	=49	=49	=49	=49	=49	=49	=49	=49	=49	=49	=49
2.E\	8e/L	.	8E\	.	8B 8G#/	ve-	.	8ee\L	.	.	8gg#\L	ve-	.
.	(8g#/	.	8r	.	8r	.	.	8b\J	.	.	8ee\J	.	.
.	8b/	.	8E\	.	8B 8G#/	-nit	.	8g#/L	.	.	8b\L	-nit	.
.	8g#/	.	8r	.	8r	.	.	8e/J	.	.	8g#\J	.	.
.	8e/	.	8E\	.	8B 8G#/	in	.	8g#\L	.	.	8b\L	in	.
.	8B/J)	.	8r	.	8r	.	.	8ee\J	.	.	8gg#\J	.	.
=50	=50	=50	=50	=50	=50	=50	=50	=50	=50	=50	=50	=50	=50
2.F#\	8d#/L	.	8F#\	.	8d# 8B\	no-	.	4.dd#\	.	.	4.ff#\	no-	.
.	(8f#/	.	8r	.	8r	.	.	.	.	.	.	.	.
.	8b/	.	8F#\	.	8d# 8B\	-mi-	.	.	.	.	.	.	.
.	8f#/	.	8r	.	8r	.	.	8cc##X\	.	.	8ee#X\	-mi-	.
.	8d#/	.	8F#\	.	8d# 8B\	-ne	.	4dd#\	.	.	4ff#\	-ne	.
.	8B/J)	.	8r	.	8r	.	.	.	.	.	.	.	.
=51	=51	=51	=51	=51	=51	=51	=51	=51	=51	=51	=51	=51	=51
2.FF#/	8c#/L	.	8F#\	.	8c# 8A#\	do-	.	(4.cc#X\	.	.	(4.een\	do-	.
.	(8f#/	.	8r	.	8r	.	.	.	.	.	.	.	.
.	8a#X/	.	4r	.	4r	.	.	.	.	.	.	.	.
.	8f#/	.	.	.	.	.	.	8b#X\)	.	.	8dd#\)	.	.
.	8c#/	.	8F#\	.	8c# 8A#\	-mi-	.	8cc#\L	.	.	8ee\L	-mi-	.
.	8A#X/J)	.	8r	.	8r	.	.	8dd#\J	.	.	8ff#\J	.	.
=52	=52	=52	=52	=52	=52	=52	=52	=52	=52	=52	=52	=52	=52
*	*	*	*	*	*^	*	*	*	*	*	*	*	*
2.BB/	8d#/L	.	8B\	.	8B/	8B\	-ni	.	4bn\	.	.	4dd#\	-ni	.
.	(8f#/	.	8r	.	8r	8ryy	.	.	.	.	.	.	.	.
.	8b/	.	8B\	.	8d# 8B\	2ryy	Be-	.	4r	.	.	4r	.	.
.	8f#/	.	8r	.	8r	.	.	.	.	.	.	.	.	.
.	8d#/	.	8B\	.	8d# 8B\	.	-ne-	.	8dd#\	Be-	.	4r	.	.
.	8B/J)	.	8r	.	8r	.	.	.	8dd#\	-ne-	.	.	.	.
*	*	*	*	*	*v	*v	*	*	*	*	*	*	*	*
=53	=53	=53	=53	=53	=53	=53	=53	=53	=53	=53	=53	=53	=53
2.F##X\	8c#/L	.	8F##X\	.	8d# 8A#X\	-dic-	.	4dd#\	-dic-	.	4r	.	.
.	(8d#/	.	8r	.	8r	.	.	.	.	.	.	.	.
.	8a#X/	.	8F##\	.	8d# 8A#\	-tus	.	4a#X/	-tus	.	4r	.	.
.	8d#/	.	8r	.	8r	.	.	.	.	.	.	.	.
.	8c#/	.	8F##\	.	8d# 8A#\	qui	.	4cc#\	qui	.	8dd#\	Be-	.
.	8d#/J)	.	8r	.	8r	.	.	.	.	.	8dd#\	-ne-	.
=54	=54	=54	=54	=54	=54	=54	=54	=54	=54	=54	=54	=54	=54
2.G#\	8B/L	.	8G#\	.	8d# 8B\	ve-	.	4b\	ve-	.	4gg#\	-dic-	.
.	(8d#/	.	8r	.	8r	.	.	.	.	.	.	.	.
.	8g#/	.	8G#\	.	8d# 8B\	-nit	.	4g#\	-nit	.	4b\	-tus	.
.	8d#/	.	8r	.	8r	.	.	.	.	.	.	.	.
.	8B/	.	8G#\	.	8d# 8B\	in	.	4dd#\	in	.	8gg#\	Be-	.
.	8d#/J)	.	8r	.	8r	.	.	.	.	.	8ff#\	-ne-	.
!!LO:PB:g=original
=55	=55	=55	=55	=55	=55	=55	=55	=55	=55	=55	=55	=55	=55
2.C#/	8c#/L	.	8C#/	.	8e#X 8G#\	no-	.	(4.cc#\	no-	.	2.ee#X\	-dic-	.
.	(8e#X/	.	8r	.	8r	.	.	.	.	.	.	.	.
.	8g#/	.	8C#/	.	8c# 8E#X/	-mi-	.	.	.	.	.	.	.
.	8e#/	.	8r	.	8r	.	.	8g#\)	.	.	.	.	.
.	8c#/	.	8C#/	.	8c# 8E#/	-ne	.	8cc#\	-mi-	.	.	.	.
.	8e#/J)	.	8r	.	8r	.	.	8b\	-ne	.	.	.	.
=56	=56	=56	=56	=56	=56	=56	=56	=56	=56	=56	=56	=56	=56
*	*	*	*	*	*^	*	*	*	*	*	*	*	*
!	!LO:TX:t=P:problem:mixed beam	!	!	!	!	!	!	!	!	!	!	!	!	!
2.F#\	8f#/L	.	8F#\	.	8F#/	8F#\	Do-	.	8.b/	Do-	.	4ff#\	-tus	.
.	(>8c#/	.	8r	.	8r	8ryy	.	.	.	.	.	.	.	.
.	.	.	.	.	.	.	.	.	16a#X/	-mi-	.	.	.	.
.	8cc#\	.	8F#\	.	8F#/	8F#\	-mi-	.	8a#/	-ni	.	4r	.	.
.	8a#X\	.	8r	.	8r	8ryy	.	.	8r	.	.	.	.	.
*	*	*	*	*	*	*	*	*	*	*ij	*	*	*	*
.	8f#\	.	8F#\	.	8F#/	8F#\	-ni	.	8b\	Be-	.	8dd#\	Be-	.
.	8en\J)	.	8r	.	8r	8ryy	.	.	8cc#\	-ne-	.	8een\	-ne-	.
=57	=57	=57	=57	=57	=57	=57	=57	=57	=57	=57	=57	=57	=57	=57
2D#\	8d#/L	.	8D#\	.	8F#/	8F#\	Be-	.	4dd#\	-dic-	.	4ff#\	-dic-	.
.	(8f#/	.	8D#\	.	8F#/	8F#\	-ne-	.	.	.	.	.	.	.
.	8b/	.	8D#\	.	8F#/	8F#\	-dic-	.	8b\	-tus	.	8dd#\	-tus	.
*	*	*	*	*	*	*	*	*	*	*Xij	*	*	*	*
.	8d#/	.	8r	.	8r	8ryy	.	.	8r	.	.	8r	.	.
4E\	8c#/	.	8E\	.	8F#/	8F#\	-tus	.	16g##X/LL	.	.	16b#X\LL	Be-	.
.	.	.	.	.	.	.	.	.	16a#X/JJ	.	.	16cc#\JJ	.	.
.	8a#X/J)	.	8r	.	8r	8ryy	.	.	16b\LL	.	.	16dd#\LL	-ne-	.
.	.	.	.	.	.	.	.	.	16cc#\JJ	.	.	16ee\JJ	.	.
=58	=58	=58	=58	=58	=58	=58	=58	=58	=58	=58	=58	=58	=58	=58
2.D#\	8d#/L	.	8D#\	.	8F#/	8F#\	Be-	.	4dd#\	.	.	4ff#\	-dic-	.
.	(8f#/	.	8D#\	.	8F#/	8F#\	-ne-	.	.	.	.	.	.	.
.	8b/	.	8D#\	.	8F#/	8F#\	-dic-	.	8b\	.	.	8dd#\	-tus	.
.	8f#/	.	8r	.	8r	8ryy	.	.	8r	.	.	8r	.	.
.	8d#/	.	8D#\	.	8B 8F#/	4ryy	-tus	.	4b\	.	.	4dd#\	qui	.
.	8B/J)	.	8D#\	.	8B 8F#/	.	qui	.	.	.	.	.	.	.
*	*	*	*	*	*v	*v	*	*	*	*	*	*	*	*
=59	=59	=59	=59	=59	=59	=59	=59	=59	=59	=59	=59	=59	=59
2.E\	8e/L	.	8E\	.	8B 8G#/	ve-	.	8ee\L	.	.	8gg#\L	ve-	.
.	(8g#/	.	8r	.	8r	.	.	8b\J	.	.	8ee\J	.	.
.	8b/	.	8E\	.	8B 8G#/	-nit	.	8g#/L	.	.	8b\L	-nit	.
.	8g#/	.	8r	.	8r	.	.	8e/J	.	.	8g#\J	.	.
.	8e/	.	8E\	.	8B 8G#/	in	.	8g#/L	.	.	8b\L	in	.
.	8B/J)	.	8r	.	8r	.	.	8ee/J	.	.	8gg#\J	.	.
=60	=60	=60	=60	=60	=60	=60	=60	=60	=60	=60	=60	=60	=60
2.F#\	8d#/L	.	8F#\	.	8d# 8B\	no-	.	4.dd#\	.	.	4.ff#\	no-	.
.	(8f#/	.	8r	.	8r	.	.	.	.	.	.	.	.
.	8b/	.	8F#\	.	8d# 8B\	-mi-	.	.	.	.	.	.	.
.	8f#/	.	8r	.	8r	.	.	8cc##X\	.	.	8ee#X\	-mi-	.
.	8d#/	.	8F#\	.	8d# 8B\	-ne	.	4dd#\	.	.	4ff#\	-ne	.
.	8B/J)	.	8r	.	8r	.	.	.	.	.	.	.	.
=61	=61	=61	=61	=61	=61	=61	=61	=61	=61	=61	=61	=61	=61
2.ryy	8c#/L	.	8F#\	.	8c# 8A#X\	do-	.	4ff#;\	.	.	4aa#X;\	Do-	.
.	8f#/	.	16r	.	16r	.	.	.	.	.	.	.	.
.	.	.	16F#\	.	16c# 16A#\	-mi-	.	.	.	.	.	.	.
.	.	.	.	.	.	.	.	4qqee\	.	.	4qqgg#\	.	.
.	.	.	.	.	.	.	.	4qqdd#\	.	.	4qqff#\	.	.
.	.	.	.	.	.	.	.	4qqcc#\	.	.	4qqee\	.	.
.	.	.	.	.	.	.	.	4qqb#X\	.	.	4qqdd#\	.	.
.	.	.	.	.	.	.	.	4qqcc#\	.	.	4qqee\	.	.
.	8a#X/J	.	8F#\	.	8c# 8A#\	-ni	.	8ryy	.	.	8ryy	.	.
!	!	!	!	!	!	!	!	!LO:N:vis=2	!	!	!LO:N:vis=2	!	!
.	8r;	.	8r;	.	8r;	.	.	8e/	.	.	8g#/	.	.
!	!	!	!	!	!	!	!	!LO:N:vis=2	!	!	!LO:N:vis=2	!	!
.	4r;	.	4r;	.	4r;	.	.	4f#;/	.	.	4a#X;/	-mi-	.
=62	=62	=62	=62	=62	=62	=62	=62	=62	=62	=62	=62	=62	=62
!	!	!LO:DY:rj	!	!	!	!	!	!	!	!	!	!	!
[2.f# [2.B\	2ff#\	pp	2.r	.	2.r	.	.	4b\	.	.	4b\	-ni	.
.	.	.	.	.	.	.	.	4r	.	.	4r	.	.
.	8dd#\L	.	.	.	.	.	.	4r	.	.	4r	.	.
.	8gg#\J	.	.	.	.	.	.	.	.	.	.	.	.
!!LO:LB:g=original
=63	=63	=63	=63	=63	=63	=63	=63	=63	=63	=63	=63	=63	=63
2.f#_ 2.B\_	2ff#\	.	2.r	.	2.r	.	.	2.r	.	.	2.r	.	.
.	8dd#\L	.	.	.	.	.	.	.	.	.	.	.	.
.	8gg#\J	.	.	.	.	.	.	.	.	.	.	.	.
=64	=64	=64	=64	=64	=64	=64	=64	=64	=64	=64	=64	=64	=64
2.f#_ 2.B\_	(8ff#\L	.	2.r	.	2.r	.	.	2.r	.	.	2.r	.	.
.	8dd#\	.	.	.	.	.	.	.	.	.	.	.	.
.	8b\	.	.	.	.	.	.	.	.	.	.	.	.
.	8gg#\	.	.	.	.	.	.	.	.	.	.	.	.
.	8ff#\	.	.	.	.	.	.	.	.	.	.	.	.
.	8dd#\J)	.	.	.	.	.	.	.	.	.	.	.	.
=65	=65	=65	=65	=65	=65	=65	=65	=65	=65	=65	=65	=65	=65
2f#] 2B;\]	2bb;\	.	2.r;	.	2.r;	.	.	2.r;	.	.	2.r;	.	.
4r	4r	.	.	.	.	.	.	.	.	.	.	.	.
!	!	!	!	!LO:DY:b	!	!	!LO:DY:b	!	!	!	!	!	!
.	.	.	.	p	.	.	p	.	.	.	.	.	.
=66	=66	=66	=66	=66	=66	=66	=66	=66	=66	=66	=66	=66	=66
2.r	2.r	.	2E\	.	2B 2G#/	Be-	.	2.r	.	.	2.r	.	.
.	.	.	4E\	.	8G#L 8E/	-ne-	.	.	.	.	.	.	.
.	.	.	.	.	8c#J 8A/	.	.	.	.	.	.	.	.
=67	=67	=67	=67	=67	=67	=67	=67	=67	=67	=67	=67	=67	=67
2.r	2.r	.	4E\	.	4B 4G#/	-dic-	.	2.r	.	.	2.r	.	.
.	.	.	4E\	.	4B 4G#/	-tus	.	.	.	.	.	.	.
.	.	.	4E\	.	4e 4G#\	qui	.	.	.	.	.	.	.
=68	=68	=68	=68	=68	=68	=68	=68	=68	=68	=68	=68	=68	=68
2.r	2.r	.	2.BB/	.	(4.d# 4.F#\	ve-	.	2.r	.	.	2.r	.	.
.	.	.	.	.	8c#L 8A\	.	.	.	.	.	.	.	.
.	.	.	.	.	8A 8F#\	.	.	.	.	.	.	.	.
.	.	.	.	.	8c#J 8A\)	.	.	.	.	.	.	.	.
=69	=69	=69	=69	=69	=69	=69	=69	=69	=69	=69	=69	=69	=69
2.r	2.r	.	4E\	.	4B 4G#/	-nit	.	2.r	.	.	2.r	.	.
.	.	.	4r	.	4r	.	.	.	.	.	.	.	.
.	.	.	4r	.	4r	.	.	.	.	.	.	.	.
*	*clefF4	*	*	*	*	*	*	*	*	*	*	*	*
!	!	!	!	!	!	!	!	!	!	!LO:DY:b	!	!	!LO:DY:b
.	.	.	.	.	.	.	.	.	.	p	.	.	p
=70	=70	=70	=70	=70	=70	=70	=70	=70	=70	=70	=70	=70	=70
!	!	!LO:DY:rj	!	!	!	!	!	!	!	!	!	!	!
[2.E [2.EE/	2B 2G#\	p	2.r	.	2.r	.	.	2g#/	.	.	2b\	Be-	.
.	8eL 8G#\	.	.	.	.	.	.	8e/L	.	.	8g#\L	-ne-	.
.	8c#J 8A\	.	.	.	.	.	.	8a/J	.	.	8cc#\J	.	.
=71	=71	=71	=71	=71	=71	=71	=71	=71	=71	=71	=71	=71	=71
2.E] 2.EE/]	2.B 2.G#\	.	2.r	.	2.r	.	.	4g#/	.	.	4b\	-dic-	.
.	.	.	.	.	.	.	.	4b/	.	.	4gg#\	-tus	.
.	.	.	.	.	.	.	.	4g#/	.	.	4ee\	qui	.
=72	=72	=72	=72	=72	=72	=72	=72	=72	=72	=72	=72	=72	=72
2.BB/	2.d# 2.A 2.F#\	.	2.r	.	2.r	.	.	(4.f#/	.	.	(4.dd#\	ve-	.
.	.	.	.	.	.	.	.	8a/L	.	.	8cc#\L	.	.
.	.	.	.	.	.	.	.	8f#/	.	.	8a\	.	.
.	.	.	.	.	.	.	.	8a/J)	.	.	8cc#\J)	.	.
=73	=73	=73	=73	=73	=73	=73	=73	=73	=73	=73	=73	=73	=73
4E 4EE/	4e 4G#\	.	2.r	.	2.r	.	.	4g#/	.	.	4b\	-nit	.
4r	4r	.	.	.	.	.	.	4r	.	.	4r	.	.
4E 4EE/	8B\L	.	.	.	.	.	.	8g#/L	.	.	8ee\L	in	.
.	8G#\J	.	.	.	.	.	.	8b/J	.	.	8dd#\J	.	.
*	*clefG2	*	*	*	*	*	*	*	*	*	*	*	*
!!LO:PB:g=original
=74	=74	=74	=74	=74	=74	=74	=74	=74	=74	=74	=74	=74	=74
2.AA/	8A/L	.	2.r	.	2.r	.	.	4.a\	.	.	4.cc#\	no-	.
.	(8c#/	.	.	.	.	.	.	.	.	.	.	.	.
.	8e/	.	.	.	.	.	.	.	.	.	.	.	.
.	8a/	.	.	.	.	.	.	8b\	.	.	8dd#\	-mi-	.
.	8e/	.	.	.	.	.	.	8cc#\	.	.	8ee\	-ne	.
.	8c#/J)	.	.	.	.	.	.	8a\	.	.	8cc#\	in	.
=75	=75	=75	=75	=75	=75	=75	=75	=75	=75	=75	=75	=75	=75
2.E\	8G#/L	.	2.r	.	2.r	.	.	4.a/	.	.	(4.cc#\	no-	.
.	(8B/	.	.	.	.	.	.	.	.	.	.	.	.
.	8e/	.	.	.	.	.	.	.	.	.	.	.	.
.	8g#/	.	.	.	.	.	.	8g#/	.	.	8b\)	.	.
.	8e/	.	.	.	.	.	.	8b\	.	.	8ee\	-mi-	.
.	8B/J)	.	.	.	.	.	.	8ee\	.	.	8gg#\	-ne	.
=76	=76	=76	=76	=76	=76	=76	=76	=76	=76	=76	=76	=76	=76
*	*	*^	*	*	*	*	*	*	*	*	*	*	*
!	!	!LO:DY:rj	!LO:DY:rj:b=2	!	!	!	!	!	!	!	!LO:DY:rj:b:t=f.	!	!	!LO:DY:rj:b
2.BB/	8A/L	f	f	2.r	.	2.r	.	.	(8.ff#\L	.	f	(8.aa\L	Do-	f
.	(8B/	.	.	.	.	.	.	.	.	.	.	.	.	.
.	.	.	.	.	.	.	.	.	16ee\Jk	.	.	16gg#\Jk	.	.
.	8d#/	.	.	.	.	.	.	.	8.dd#\L	.	.	8.ff#\L	.	.
.	8f#/	.	.	.	.	.	.	.	.	.	.	.	.	.
.	.	.	.	.	.	.	.	.	16cc#\Jk)	.	.	16ee\Jk)	.	.
.	8d#/	.	.	.	.	.	.	.	8.b\L	.	.	8.dd#\L	-mi-	.
.	8B/J)	.	.	.	.	.	.	.	.	.	.	.	.	.
.	.	.	.	.	.	.	.	.	16a\Jk	.	.	16cc#\Jk	.	.
*	*	*v	*v	*	*	*	*	*	*	*	*	*	*	*
=77	=77	=77	=77	=77	=77	=77	=77	=77	=77	=77	=77	=77	=77
*^	*	*	*	*	*	*	*	*	*	*	*	*	*
!LO:N:vis=2	!	!	!	!	!	!	!	!	!	!	!	!	!	!
8E/L	2.E\	4e/	.	4r	.	4r	.	.	4g#/	.	.	4b\	-ni	.
(<8G#/	.	.	.	.	.	.	.	.	.	.	.	.	.	.
!	!	!	!	!	!	!	!	!LO:DY:rj:b	!	!	!	!	!	!
8B/	.	4r	.	4r	.	4r	.	p	4r	.	.	4r	.	.
8e/	.	.	.	.	.	.	.	.	.	.	.	.	.	.
8B/	.	4r	.	8E\	.	8G# 8E/	Be-	.	16e/LL	Be-	.	4r	.	.
.	.	.	.	.	.	.	.	.	16g#/JJ	.	.	.	.	.
8G#/J)	.	.	.	8E\	.	8B 8G#/	-ne-	.	16b\LL	-ne-	.	.	.	.
.	.	.	.	.	.	.	.	.	16ee\JJ	.	.	.	.	.
=78	=78	=78	=78	=78	=78	=78	=78	=78	=78	=78	=78	=78	=78	=78
!LO:N:vis=2	!	!	!	!	!	!	!	!	!	!	!	!	!	!
8BB/L	2.BB\	2aa\	.	4BB/	.	4A 4F#/	-dic-	.	4ee^\	-dic-	.	4r	.	.
(<8F#/	.	.	.	.	.	.	.	.	.	.	.	.	.	.
8A/	.	.	.	8BB/	.	8F# 8D#/	-tus	.	8dd#\	-tus	.	4r	.	.
8B/	.	.	.	8r	.	8r	.	.	8r	.	.	.	.	.
8A/	.	8ff#\L	.	4BB/	.	8F#L 8D#/	qui	.	4r	.	.	16f#\LL	qui	.
.	.	.	.	.	.	.	.	.	.	.	.	16b\	.	.
8F#/J)	.	8ccc#\J	.	.	.	8AJ 8F#/	.	.	.	.	.	16dd#\	.	.
.	.	.	.	.	.	.	.	.	.	.	.	16ff#\JJ	.	.
=79	=79	=79	=79	=79	=79	=79	=79	=79	=79	=79	=79	=79	=79	=79
*	*	*	*	*	*	*^	*	*	*	*	*	*	*	*
!LO:N:vis=2	!	!	!	!	!	!	!	!	!	!	!	!	!	!	!
8E/L	2.E\	4bb\	.	4E\	.	4G# 4E/	2ryy	ve-	.	4r	.	.	4ff#^\	ve-	.
(<8G#/	.	.	.	.	.	.	.	.	.	.	.	.	.	.	.
8B/	.	4gg#\	.	8E\	.	8G# 8E/	.	-nit	.	4r	.	.	8ee\	-nit	.
8e/	.	.	.	8r	.	8r	.	.	.	.	.	.	8r	.	.
8B/	.	4ee\	.	4E\	.	8B/L	4G#\	in	.	4ee\	in	.	4gg#\	in	.
8G#/J)	.	.	.	.	.	8e/J	.	.	.	.	.	.	.	.	.
*	*	*	*	*	*	*v	*v	*	*	*	*	*	*	*	*
=80	=80	=80	=80	=80	=80	=80	=80	=80	=80	=80	=80	=80	=80	=80
*	*	*	*	*	*	*	*	*	*	*ij	*	*	*	*
!LO:N:vis=2	!	!	!	!	!	!	!	!	!	!	!	!	!	!
8BB/L	2.BB\	4.aa\	.	2BB/	.	2d# 2F#\	no-	.	16ff#\LL	no-	.	16aa\LL	no-	.
.	.	.	.	.	.	.	.	.	16ee\	.	.	16gg#\	.	.
(<8F#/	.	.	.	.	.	.	.	.	16dd#\	.	.	16ff#\	.	.
.	.	.	.	.	.	.	.	.	16ee\JJ	.	.	16gg#\JJ	.	.
8A/	.	.	.	.	.	.	.	.	16dd#\LL	-mi-	.	16ff#\LL	-mi-	.
.	.	.	.	.	.	.	.	.	16cc#\	.	.	16ee\	.	.
8B/	.	8bb\L	.	.	.	.	.	.	16b\	.	.	16dd#\	.	.
.	.	.	.	.	.	.	.	.	16cc#\JJ	.	.	16ee\JJ	.	.
8A/	.	8ff#\	.	8BB/	.	8d# 8F#\	-mi-	.	16b\LL	-ne	.	16dd#\LL	-ne	.
.	.	.	.	.	.	.	.	.	16a\	.	.	16cc#\	.	.
8F#/J)	.	8bb\J	.	8BB/	.	8d# 8F#\	-ne	.	16g#\	.	.	16b\	.	.
.	.	.	.	.	.	.	.	.	16f#\JJ	.	.	16a\JJ	.	.
=81	=81	=81	=81	=81	=81	=81	=81	=81	=81	=81	=81	=81	=81	=81
!LO:N:vis=2	!	!	!	!	!	!	!	!	!	!	!	!	!	!
8E/L	2.E\	4bb\	.	8.E\	.	8.e 8.G#\	Do-	.	8.e/	do-	.	8.g#/	do-	.
(<8G#/	.	.	.	.	.	.	.	.	.	.	.	.	.	.
.	.	.	.	16E\	.	16B 16F#\	-mi-	.	16f#/	-mi-	.	16a/	-mi-	.
8B/	.	4gg#\	.	8E\	.	8G# 8E/	-ni	.	8g#/	-ni	.	8b/	-ni	.
*	*	*	*	*	*	*	*	*	*	*Xij	*	*	*	*
8e/	.	.	.	8r	.	8r	.	.	8r	.	.	8r	.	.
8B/	.	4r	.	8E\	.	8G# 8E/	Be-	.	16e/LL	Be-	.	4r	.	.
.	.	.	.	.	.	.	.	.	16g#/JJ	.	.	.	.	.
8G#/J)	.	.	.	8E\	.	8B 8G#/	ne-	.	16b\LL	-ne-	.	.	.	.
.	.	.	.	.	.	.	.	.	16ee\JJ	.	.	.	.	.
=82	=82	=82	=82	=82	=82	=82	=82	=82	=82	=82	=82	=82	=82	=82
!LO:N:vis=2	!	!	!	!	!	!	!	!	!	!	!	!	!	!
8BB/L	2.BB\	2aa\	.	4BB/	.	4A 4F#/	-dic-	.	4ee^\	-dic-	.	4r	.	.
(<8F#/	.	.	.	.	.	.	.	.	.	.	.	.	.	.
8A/	.	.	.	8BB/	.	8F# 8D#/	-tus	.	8dd#\	-tus	.	4r	.	.
8B/	.	.	.	8r	.	8r	.	.	8r	.	.	.	.	.
8A/	.	8ff#\L	.	4BB/	.	8F#L 8D#/	qui	.	4r	.	.	16f#\LL	qui	.
.	.	.	.	.	.	.	.	.	.	.	.	16b\	.	.
8F#/J)	.	8ccc#\J	.	.	.	8AJ 8F#/	.	.	.	.	.	16dd#\	.	.
.	.	.	.	.	.	.	.	.	.	.	.	16ff#\JJ	.	.
!!LO:LB:g=original
=83	=83	=83	=83	=83	=83	=83	=83	=83	=83	=83	=83	=83	=83	=83
*	*	*	*	*	*	*^	*	*	*	*	*	*	*	*
!LO:N:vis=2	!	!	!	!	!	!	!	!	!	!	!	!	!	!	!
8E/L	2.E\	4bb\	.	4E\	.	4G# 4E/	2ryy	ve-	.	4r	.	.	4ff#\	ve-	.
(<8G#/	.	.	.	.	.	.	.	.	.	.	.	.	.	.	.
8B/	.	4gg#\	.	8E\	.	8G# 8E/	.	-nit	.	4r	.	.	8ee\	-nit	.
8e/	.	.	.	8r	.	8r	.	.	.	.	.	.	8r	.	.
8B/	.	4ee\	.	4E\	.	8B/L	4G#\	in	.	4ee\	in	.	4gg#\	in	.
8G#/J)	.	.	.	.	.	8e/J	.	.	.	.	.	.	.	.	.
*	*	*	*	*	*	*v	*v	*	*	*	*	*	*	*	*
=84	=84	=84	=84	=84	=84	=84	=84	=84	=84	=84	=84	=84	=84	=84
!LO:N:vis=2	!	!	!	!	!	!	!	!	!	!	!	!	!	!
8BB/L	2.BB\	4.aa\	.	2BB/	.	2d# 2F#/	no-	.	16ff#\LL	.	.	16aa\LL	no-	.
.	.	.	.	.	.	.	.	.	16ee\	.	.	16gg#\	.	.
(<8F#/	.	.	.	.	.	.	.	.	16dd#\	.	.	16ff#\	.	.
.	.	.	.	.	.	.	.	.	16ee\JJ	.	.	16gg#\JJ	.	.
8A/	.	.	.	.	.	.	.	.	16dd#\LL	.	.	16ff#\LL	-mi-	.
.	.	.	.	.	.	.	.	.	16cc#\	.	.	16ee\	.	.
8B/	.	8bb\L	.	.	.	.	.	.	16b\	.	.	16dd#\	.	.
.	.	.	.	.	.	.	.	.	16cc#\JJ	.	.	16ee\JJ	.	.
8A/	.	8ff#\	.	8BB/	.	8d# 8F#/	-mi-	.	16b\LL	.	.	16dd#\LL	-ne	.
.	.	.	.	.	.	.	.	.	16a\	.	.	16cc#\	.	.
8F#/J)	.	8bb\J	.	8BB/	.	8d# 8F#/	-ne	.	16g#\	.	.	16b\	.	.
.	.	.	.	.	.	.	.	.	16f#\JJ	.	.	16a\JJ	.	.
*v	*v	*	*	*	*	*	*	*	*	*	*	*	*	*
=85	=85	=85	=85	=85	=85	=85	=85	=85	=85	=85	=85	=85	=85
!	!LO:N:vis=4.	!	!	!	!	!	!	!	!	!	!	!	!
(8E\L	4bb\	.	8.E\	.	8.e 8.G#/	do-	.	8.e/	.	.	8.g#/	do-	.
8G#\	.	.	.	.	.	.	.	.	.	.	.	.	.
.	.	.	16E\	.	16B 16F#/	-mi-	.	16f#/	.	.	16a/	-mi-	.
8E\	(8gg#\L	.	8E\	.	8G# 8E/	-ni	.	8g#/	.	.	8b/	-ni	.
8BB\	8ee\	.	8r	.	8r	.	.	8r	.	.	8r	.	.
!	!	!	!	!	!	!	!	!	!	!LO:DY:rj:b	!	!	!LO:DY:rj:b
8GG#\	8b\	.	4r	.	4r	.	.	8.e/	.	p	8.g#/	Be-	p
8EE\J)	8g#\J)	.	.	.	.	.	.	.	.	.	.	.	.
.	.	.	.	.	.	.	.	16e/	.	.	16g#/	-ne-	.
!	!	!	!	!LO:DY:b	!	!	!LO:DY:b	!	!	!	!	!	!
.	.	.	.	p	.	.	p	.	.	.	.	.	.
=86	=86	=86	=86	=86	=86	=86	=86	=86	=86	=86	=86	=86	=86
*	*	*	*	*	*^	*	*	*	*	*	*	*	*
[2.E [2.EE/	8f#L 8A/	.	2E\	.	2E/	2E\	Be-	.	8f#/L	.	.	8a/L	-dic-	.
.	.	.	.	.	.	.	.	.	.	.	.	.	.	<
!	!	!LO:HP:a	!	!	!	!	!	!	!	!	!	!	!	!
.	8e 8G#/	<	.	.	.	.	.	.	8e/	.	.	8g#/	.	.
.	8f# 8A/	.	.	.	.	.	.	.	8f#/	.	.	8a/	.	.
.	8g# 8B/	.	.	.	.	.	.	.	8g#/	.	.	8b/	.	.
.	8a 8c#/	.	4E\	.	4E/	4E\	-ne-	.	8a/	.	.	8cc#/	.	.
.	8f#J 8d#/	[	.	.	.	.	.	.	8f#/J	.	.	8dd#/J	.	[
=87	=87	=87	=87	=87	=87	=87	=87	=87	=87	=87	=87	=87	=87	=87
2.E_ 2.EE/_	4g# 4e/	.	4E\	.	4E/	4E\	-dic-	.	4g#/	.	.	4ee\	-tus	.
!	!	!	!	!	!	!	!	!LO:HP:a:t=cres	!	!	!	!	!	!
.	.	.	.	.	.	.	.	<	.	.	.	.	.	.
!	!	!	!	!	!	!	!	!	!	!	!	!	!	!LO:HP:a:t=cres
.	4r	.	4E\	.	4E/	4E\	-tus	.	4r	.	.	4r	.	<
.	4g# 4B/	.	4E\	.	4E/	4E\	qui	.	8.g#/	.	.	8.b\	Be-	.
.	.	.	.	.	.	.	.	.	16g#/	.	.	16b\	-ne-	.
=88	=88	=88	=88	=88	=88	=88	=88	=88	=88	=88	=88	=88	=88	=88
!	!	!LO:HP:a	!	!	!	!	!	!	!	!	!	!	!	!
2.E] 2.EE/]	(8aL 8c#/	<	4E\	.	4E/	4E\	ve-	.	8a\L	.	.	8cc#\L	-dic-	.
!	!	!	!	!	!	!	!	!	!	!	!	!	!	!LO:DY:a
.	8g# 8B/	.	.	.	.	.	.	.	8g#\	.	.	8b\	.	<
.	8a 8c#/	.	4E\	.	4E/	4E\	-nit	.	8a\	.	.	8cc#\	.	.
.	8b 8d#/	.	.	.	.	.	.	.	8b\	.	.	8dd#\	.	.
.	8cc# 8e/	.	4E\	.	4E/	4E\	in	.	8cc#\	.	.	8ee\	.	.
.	8dd#J 8f#/)	[	.	.	.	.	.	.	8dd#\J	.	.	8ff#\J	.	[
=89	=89	=89	=89	=89	=89	=89	=89	=89	=89	=89	=89	=89	=89	=89
8r	4ee 4g#\	.	4E\	.	4E/	4E\	no-	.	4ee\	.	.	4gg#\	-tus	.
(8EE/L	.	.	.	.	.	.	.	.	.	.	.	.	.	.
8GG#/	4r	.	4E\	.	4E/	4E\	-mi-	.	4r	.	.	4r	.	.
8BB/	.	.	.	.	.	.	.	.	.	.	.	.	.	.
8E/	4r	.	4E\	.	4E/	4E\	-ne	.	4ee\	.	.	4gg#\	qui	.
8G#/J)	.	.	.	.	.	.	.	.	.	.	.	.	.	.
!	!	!	!	!	!	!	!	!LO:DY:b	!	!	!LO:DY:b	!	!	!LO:DY:b
.	.	.	.	.	.	.	.	f	.	.	f	.	.	f
*	*	*	*	*	*v	*v	*	*	*	*	*	*	*	*
=90	=90	=90	=90	=90	=90	=90	=90	=90	=90	=90	=90	=90	=90
!	!	!LO:DY:rj	!	!LO:DY:rj:b	!	!	!	!	!	!	!	!	!
2.B\	2.g# 2.e/	f	2.BB/	f	2.e 2.G#\	do-	.	8ee\L	.	.	8gg#\L	ve-	.
.	.	.	.	.	.	.	.	8b\J	.	.	8ee\J	.	.
.	.	.	.	.	.	.	.	8g#/L	.	.	8b/L	-nit	.
.	.	.	.	.	.	.	.	8e/J	.	.	8g#/J	.	.
.	.	.	.	.	.	.	.	8a/L	.	.	8cc#\L	in	.
.	.	.	.	.	.	.	.	8g#/J	.	.	8b\J	.	.
=91	=91	=91	=91	=91	=91	=91	=91	=91	=91	=91	=91	=91	=91
2.BB/	2.f# 2.d#/	.	2.BB^>/	.	2.d# 2.F#^\	-mi-	.	4g#/	.	.	4b/	no-	.
.	.	.	.	.	.	.	.	8g#/	.	.	8b/	-mi-	.
!	!	!	!	!	!	!	!	!	!	!	!	!	!LO:HP:a
.	.	.	.	.	.	.	.	.	.	.	.	.	>
.	.	.	.	.	.	.	.	8f##X/	.	.	8a#X/	-ne	.
!	!	!	!	!	!	!	!	!LO:N:acc=n#	!	!	!	!	!
.	.	.	.	.	.	.	.	8f#/	.	.	8an/	do-	.
.	.	.	.	.	.	.	.	8d#/	.	.	8f#/	-mi-	]
!!LO:PB:g=original
=92	=92	=92	=92	=92	=92	=92	=92	=92	=92	=92	=92	=92	=92
(8E\L	4g# 4e/	.	4E\	p	4e 4G#\	-ni	.	4e/	.	.	4g#/	-ni	.
8G#\	.	.	.	.	.	.	.	.	.	.	.	.	.
8E\	(8g#/L	.	4r	.	4r	.	.	4r	.	.	4r	.	.
8BB\	8e/	.	.	.	.	.	.	.	.	.	.	.	.
!	!	!	!	!	!	!	!	!	!	!LO:DY:rj:b	!	!	!LO:DY:rj:b
8GG#\	8B/	.	4r	.	4r	.	.	8.e/	.	p	8.g#/	Be-	p
8EE\J)	8G#/J)	.	.	.	.	.	.	.	.	.	.	.	.
.	.	.	.	.	.	.	.	16e/	.	.	16g#/	-ne-	.
!	!	!	!	!LO:DY:b	!	!	!LO:DY:b	!	!	!	!	!	!
.	.	.	.	p	.	.	p	.	.	.	.	.	.
=93	=93	=93	=93	=93	=93	=93	=93	=93	=93	=93	=93	=93	=93
*	*	*	*	*	*^	*	*	*	*	*	*	*	*
[2.E [2.EE/	(8f#L 8A/	.	2E\	.	2E/	2E\	Be-	.	8f#/L	.	.	8a/L	-dic-	.
.	.	.	.	.	.	.	.	.	.	.	.	.	.	<
!	!	!LO:HP:a	!	!	!	!	!	!	!	!	!	!	!	!
.	8e 8G#/	<	.	.	.	.	.	.	8e/	.	.	8g#/	.	.
.	8f# 8A/	.	.	.	.	.	.	.	8f#/	.	<	8a/	.	.
.	8g# 8B/	.	.	.	.	.	.	.	8g#/	.	.	8b/	.	.
.	8a 8c#/	.	4E\	.	4E/	4E\	-ne-	.	8a/	.	.	8cc#/	.	.
.	8f#J 8d#/)	[	.	.	.	.	.	.	8f#/J	.	[	8dd#/J	.	[
=94	=94	=94	=94	=94	=94	=94	=94	=94	=94	=94	=94	=94	=94	=94
2.E_ 2.EE/_	4g# 4e/	.	4E\	.	4E/	4E\	-dic-	.	4g#/	.	.	4ee\	-tus	.
!	!	!	!	!	!	!	!	!LO:HP:a:t=cres	!	!	!	!	!	!LO:HP:a:t=cres
.	4r	.	4E\	.	4E/	4E\	-tus	<	4r	.	.	4r	.	<
.	4g# 4B/	.	4E\	.	4E/	4E\	qui	.	8.g#/	.	.	8.b\	Be-	.
.	.	.	.	.	.	.	.	.	16g#/	.	.	16b\	-ne-	.
=95	=95	=95	=95	=95	=95	=95	=95	=95	=95	=95	=95	=95	=95	=95
2.E] 2.EE/]	(8aL 8c#/	.	4E\	.	4E/	4E\	ve-	.	8a\L	.	.	8cc#\L	-dic-	.
!	!	!LO:HP:a	!	!	!	!	!	!	!	!	!LO:DY:a	!	!	!LO:DY:a
.	8g# 8B/	<	.	.	.	.	.	.	8g#\	.	<	8b\	.	<
.	8a 8c#/	.	4E\	.	4E/	4E\	-nit	.	8a\	.	.	8cc#\	.	.
.	8b 8d#/	.	.	.	.	.	.	.	8b\	.	.	8dd#\	.	.
.	8cc# 8e/	.	4E\	.	4E/	4E\	in	.	8cc#\	.	.	8ee\	.	.
.	8dd#J 8f#/)	[	.	.	.	.	.	.	8dd#\J	.	[	8ff#\J	.	[
=96	=96	=96	=96	=96	=96	=96	=96	=96	=96	=96	=96	=96	=96	=96
8r	4ee 4g#\	.	4E\	.	4E/	4E\	no-	.	4ee\	.	.	4gg#\	-tus	.
(8EE/L	.	.	.	.	.	.	.	.	.	.	.	.	.	.
8GG#/	4r	.	4E\	.	4E/	4E\	-mi-	.	4r	.	.	4r	.	.
8BB/	.	.	.	.	.	.	.	.	.	.	.	.	.	.
!	!	!	!	!	!	!	!	!	!	!	!LO:DY:rj:b	!	!	!LO:DY:rj:b
8E/	4r	.	4E\	.	4E/	4E\	-ne	.	4ee\	.	f	4gg#\	qui	f
8G#/J)	.	.	.	.	.	.	.	.	.	.	.	.	.	.
*	*	*	*	*	*v	*v	*	*	*	*	*	*	*	*
=97	=97	=97	=97	=97	=97	=97	=97	=97	=97	=97	=97	=97	=97
!	!	!LO:DY:rj	!	!LO:DY:rj:b	!	!	!LO:DY:rj:b	!	!	!	!	!	!
2.B\	2.g# 2.e/	f	2.BB/	f	2.e 2.G#\	do-	f	8ee\L	.	.	8gg#\L	ve-	.
.	.	.	.	.	.	.	.	8b\J	.	.	8ee\J	.	.
.	.	.	.	.	.	.	.	8g#\L	.	.	8b\L	-nit	.
.	.	.	.	.	.	.	.	8e\J	.	.	8g#\J	.	.
.	.	.	.	.	.	.	.	8a/L	.	.	8cc#\L	in	.
.	.	.	.	.	.	.	.	8g#/J	.	.	8b\J	.	.
=98	=98	=98	=98	=98	=98	=98	=98	=98	=98	=98	=98	=98	=98
[2.BB/	[2.f# [2.d#/	.	2.BB^>/	.	2.d# 2.F#^\	-mi-	.	4g#/	.	.	4b/	no-	.
.	.	.	.	.	.	.	.	8g#/	.	.	8b/	-mi-	.
!	!	!	!	!	!	!	!	!	!	!LO:HP:a	!	!	!LO:HP:a
.	.	.	.	.	.	.	.	.	.	>	.	.	>
.	.	.	.	.	.	.	.	8f##X/	.	.	8a#X/	-ne	.
!	!	!	!	!	!	!	!	!LO:N:acc=n#	!	!	!	!	!
.	.	.	.	.	.	.	.	8f#/L	.	.	8an/L	do-	.
.	.	.	.	.	.	.	.	8d#/J	.	]	8f#/J	.	]
!	!	!	!	!LO:DY:b	!	!	!LO:DY:b	!	!	!	!	!	!
.	.	.	.	p	.	.	p	.	.	.	.	.	.
=99	=99	=99	=99	=99	=99	=99	=99	=99	=99	=99	=99	=99	=99
4BB/]	4f#] 4d#/]	.	4BB/	.	4d# 4F#\	-ni	.	4d#;/	.	.	4f#;/	-mi-	.
.	.	.	.	.	.	.	.	4qqe/	.	<	4qqg#\	.	<
.	.	.	.	.	.	.	.	4qqf#/	.	.	4qqa\	.	.
.	.	.	.	.	.	.	.	4qqg#/	.	.	4qqb\	.	.
.	.	.	.	.	.	.	.	4qqa/	.	.	4qqcc#\	.	.
.	.	.	.	.	.	.	.	4qqb/	.	.	4qqdd#\	.	.
.	.	.	.	.	.	.	.	4qqcc#/	.	.	4qqee\	.	.
.	.	.	.	.	.	.	.	4qqdd#/	.	.	4qqff#\	.	.
.	.	.	.	.	.	.	.	4qqee/	.	[	4qqgg#\	.	[
4r;	4r;	.	4r;	.	4r;	.	.	4ff#;\	.	.	4aa;\	.	.
.	.	.	.	.	.	.	.	4qqdd#\	.	.	4qqff#\	.	.
.	.	.	.	.	.	.	.	4qqb\	.	>	4qqdd#\	.	>
.	.	.	.	.	.	.	.	4qqf#\	.	.	4qqb\	.	.
.	.	.	.	.	.	.	.	4qqd#\	.	.	4qqf#\	.	.
!	!	!	!	!	!	!	!	!LO:N:vis=4..	!	!	!LO:N:vis=4..	!	!
4r;	4r;	.	4r;	.	4r;	.	.	8.a^>;</	.	]	8.cc#^<;\	.	]
.	.	.	.	.	.	.	.	16a/	.	.	16b\	-mi-	.
!!LO:PB:g=original
=100	=100	=100	=100	=100	=100	=100	=100	=100	=100	=100	=100	=100	=100
!	!	!LO:DY:rj	!	!	!	!	!	!	!	!	!	!	!
[2.B [2.E\	2bb\	pp	2.r	.	2.r	.	.	4g#/	.	.	4e/	ni	.
.	.	.	.	.	.	.	.	4r	.	.	4r	.	.
.	8gg#\L	.	.	.	.	.	.	4r	.	.	4r	.	.
.	8ccc#\J	.	.	.	.	.	.	.	.	.	.	.	.
=101	=101	=101	=101	=101	=101	=101	=101	=101	=101	=101	=101	=101	=101
2.B_ 2.E\_	2bb\	.	2.r	.	2.r	.	.	2.r	.	.	2.r	.	.
.	8gg#\L	.	.	.	.	.	.	.	.	.	.	.	.
.	8ccc#\J	.	.	.	.	.	.	.	.	.	.	.	.
=102	=102	=102	=102	=102	=102	=102	=102	=102	=102	=102	=102	=102	=102
2.B_ 2.E\_	(8bb\L	.	2.r	.	2.r	.	.	2.r	.	.	2.r	.	.
.	8gg#\	.	.	.	.	.	.	.	.	.	.	.	.
.	8ee\	.	.	.	.	.	.	.	.	.	.	.	.
.	8ccc#\	.	.	.	.	.	.	.	.	.	.	.	.
.	8bb\	.	.	.	.	.	.	.	.	.	.	.	.
.	8gg#\J)	.	.	.	.	.	.	.	.	.	.	.	.
=103	=103	=103	=103	=103	=103	=103	=103	=103	=103	=103	=103	=103	=103
2B] 2E;\]	2ee;\	.	2.r	.	2.r	.	.	2.r	.	.	2.r	.	.
4r	4r	.	.	.	.	.	.	.	.	.	.	.	.
==	==	==	==	==	==	==	==	==	==	==	==	==	==
*-	*-	*-	*-	*-	*-	*-	*-	*-	*-	*-	*-	*-	*-
!!!system-decoration: <{s1,s2}{s3,s4}>[(p5)]
!!!RDF**kern: > = above
!!!RDF**kern: < = below
!!!ENC: Andrzej Kubiczek
!!!END: 2021-06-06
!!!ENC: Katarzyna Serwa
!!!END: 2021-05-15
